static/B2C/youtube.svg

<?xml version="1.0" encoding="UTF-8"?>
<svg width="26px" height="26px" viewBox="0 0 26 26" version="1.1" xmlns="http://www.w3.org/2000/svg" xmlns:xlink="http://www.w3.org/1999/xlink">
    <!-- Generator: Sketch 52.4 (67378) - http://www.bohemiancoding.com/sketch -->
    <title>youtube</title>
    <desc>Created with Sketch.</desc>
    <defs>
        <polygon id="path-1" points="17.3333333 6.06666667 17.3333333 0 0 0 0 6.06666667 0 12.1333333 17.3333333 12.1333333"></polygon>
    </defs>
    <g id="Plans" stroke="none" stroke-width="1" fill="none" fill-rule="evenodd">
        <g id="5-product-plans" transform="translate(-123.000000, -768.000000)">
            <g id="soc" transform="translate(123.000000, 768.000000)">
                <g id="social">
                    <g id="youtube">
                        <circle id="Oval-6-Copy" fill="#FF0000" fill-rule="nonzero" cx="12.8576586" cy="12.8576586" r="12.8576586"></circle>
                        <g id="Group-10" transform="translate(4.333333, 6.933333)">
                            <mask id="mask-2" fill="white">
                                <use xlink:href="#path-1"></use>
                            </mask>
                            <g id="Clip-2"></g>
                            <path d="M6.89393939,8.62728925 L6.89393939,3.50604409 L11.4242424,6.06676452 L6.89393939,8.62728925 Z M16.9711061,1.89465914 C16.7717727,1.14885054 16.1844091,0.561558065 15.4386818,0.36223871 C14.0869773,0 8.66666667,0 8.66666667,0 C8.66666667,0 3.24635606,0 1.89465152,0.36223871 C1.14892424,0.561558065 0.561560606,1.14885054 0.362227273,1.89465914 C0,3.24635161 0,6.06666667 0,6.06666667 C0,6.06666667 0,8.88688387 0.362227273,10.2386742 C0.561560606,10.9844828 1.14892424,11.5717753 1.89465152,11.7711925 C3.24635606,12.1333333 8.66666667,12.1333333 8.66666667,12.1333333 C8.66666667,12.1333333 14.0869773,12.1333333 15.4386818,11.7711925 C16.1844091,11.5717753 16.7717727,10.9844828 16.9711061,10.2386742 C17.3333333,8.88688387 17.3333333,6.06666667 17.3333333,6.06666667 C17.3333333,6.06666667 17.3333333,3.24635161 16.9711061,1.89465914 Z" id="Fill-1" fill="#FFFFFF" mask="url(#mask-2)"></path>
                        </g>
                    </g>
                </g>
            </g>
        </g>
    </g>
</svg>

<svg width="26" height="26" xmlns="http://www.w3.org/2000/svg" xmlns:xlink="http://www.w3.org/1999/xlink"><defs><path id="a" d="M17.333 6.067V0H0v12.133h17.333z"/></defs><g fill="none" fill-rule="evenodd"><circle fill="red" fill-rule="nonzero" cx="12.858" cy="12.858" r="12.858"/><g transform="translate(4.333 6.933)"><mask id="b" fill="#fff"><use xlink:href="#a"/></mask><path d="M6.894 8.627V3.506l4.53 2.56-4.53 2.561zM16.97 1.895A2.17 2.17 0 0 0 15.44.362C14.087 0 8.667 0 8.667 0s-5.42 0-6.772.362A2.17 2.17 0 0 0 .362 1.895C0 3.246 0 6.067 0 6.067s0 2.82.362 4.172c.2.745.787 1.333 1.533 1.532 1.351.362 6.772.362 6.772.362s5.42 0 6.772-.362a2.171 2.171 0 0 0 1.532-1.532c.362-1.352.362-4.172.362-4.172s0-2.82-.362-4.172z" fill="#FFF" mask="url(#b)"/></g></g></svg>
